X: 21330
T: Ker Eon
R: polka
M: 2/4
K: Eminor
EFGA Bc (3B/c/B/ A|GEGF E2E2|EFGA Bc (3B/c/B/ A|GEGF E2E2||
|:EFGA Bcd2|c/B/A cB G2G2|EFGA Bc (3B/c/B/ A|GEGF E2E2:|
B,EEG GEG2|GEDF E2E2|B,EEG GEG2|GEDF E2E2||
|:B,EEG GEG2|EGB2 BAB2|Bddc Bc B/c/B|A2GB BB A/B/A|G2EA AA G/A/G|EEDF E2E2:|
B2AB GFE2|FGED E2E2|B2AB GFE2|FGED E2E2||
B2AB GF EF/G/|ABcd BAB2|B2AB GFEF|GAFD E2E2|
B2AB GF EF/G/|ABce dcB2|A/B/A GA FEDE|FGED E2E2||

